X: 206
T:The Rizla
C:Charlie McKerron
S:Angus Sessions Podcast
F:http://blackrosetheband.googlepages.com/ABCTUNES.ABC May 2009
M:4/4
R:Reel
K:Am
B|:c2cA B2BA|Beed BAAB|c2cA B2BA|GEDE GDEG|
ABBA B2BA|Beed BAAB|cABG AGEG|1EDEG A2 AB:|2 EDEG A2A2||
|:DEFA E2AB|(3cBA BG AGEG|DEFA G2DE-|E DEA EA,A,2|
DEFA E2AB|(3cBA Bc edBc-|cABG AGEG|EDEG A2A2:||
c2cA B2BA|GEDE GDEG|ABBA B2BA|Bded BAAB|
c3A B3A|GEDE GDEG|ABBA B2BA|Bded BAGA||
|:DEAE cEAE|DEeE dEeE|DEAB (3cBA ce|aged cAGA|
DEAE cEAE|DEeE d2AB|c2cA B2BA|1 Bded BAGA :|2 Bded BAAB||

